src/assets/icons/upi.svg

<svg width="72" height="25" viewBox="0 0 72 25" fill="none" xmlns="http://www.w3.org/2000/svg">
<path id="Union" fill-rule="evenodd" clip-rule="evenodd" d="M55.4297 18.5222H51.7421L56.8707 0H60.5585L55.4297 18.5222ZM30.9134 23.1862C30.9136 23.16 30.9212 23.0877 30.9361 22.9689C30.9476 22.8702 30.9566 22.7884 30.9631 22.7236C30.9312 22.8008 30.8935 22.8781 30.8503 22.9549C30.8069 23.032 30.7571 23.1106 30.7003 23.1909L29.4051 24.9949L28.9825 23.154C28.9645 23.0783 28.9507 23.0051 28.9415 22.9343C28.9324 22.8633 28.926 22.7932 28.923 22.7236C28.9046 22.7947 28.8813 22.8689 28.8528 22.9469C28.8243 23.0247 28.7903 23.1062 28.7503 23.1909L27.9972 24.8583H27.5038L29.1284 21.3291L29.5908 23.4661C29.5975 23.5 29.6072 23.5564 29.6191 23.635C29.6309 23.7136 29.6449 23.8107 29.6612 23.9262C29.7158 23.8291 29.7946 23.7059 29.8983 23.5564C29.9258 23.5162 29.9469 23.4854 29.961 23.4638L31.4234 21.3291L31.3765 24.8583H30.8782L30.9134 23.1862ZM23.2972 23.5285H24.2169L24.0633 22.7559C24.0561 22.7067 24.0492 22.6501 24.0432 22.5861C24.0377 22.522 24.0339 22.4507 24.0314 22.3721C23.9958 22.4461 23.9601 22.5151 23.9243 22.5792C23.8887 22.6431 23.8541 22.702 23.8201 22.7559L23.2972 23.5285ZM24.4622 24.8581L24.2964 23.9863H22.989L22.3971 24.8581H21.8339L24.2743 21.3384L25.0279 24.8581H24.4622ZM4.88742 21.3399L4.04483 24.8596H4.53841L5.10199 22.5053C5.13373 22.5745 5.16835 22.6409 5.20678 22.7042C5.24484 22.7675 5.28557 22.8275 5.32937 22.8843L6.96406 24.991L7.80607 21.4739H7.3102L6.74815 23.8212C6.7034 23.7378 6.6598 23.6632 6.61716 23.5968C6.57451 23.5305 6.53129 23.468 6.48845 23.4096L4.88742 21.3399ZM1.93674 21.4723H1.40702L0.902724 23.5791C0.792763 24.0385 0.822405 24.3815 0.992223 24.608C1.16185 24.8346 1.47337 24.948 1.92756 24.948C2.38137 24.948 2.74816 24.8344 3.02794 24.6068C3.30752 24.3796 3.50278 24.0369 3.61236 23.5791L4.11665 21.4723H3.58004L3.08799 23.5283C3.01493 23.8333 2.8912 24.063 2.71679 24.2161C2.54258 24.3695 2.3196 24.4462 2.04766 24.4462C1.774 24.4462 1.58678 24.3695 1.48619 24.2161C1.38521 24.063 1.37145 23.8333 1.4445 23.5283L1.93674 21.4723ZM7.76163 24.8581L8.57209 21.4725H9.10832L8.29805 24.8581H7.76163ZM9.88068 21.4725L9.07022 24.8581H9.60664L9.98739 23.2669H11.2928L11.4083 22.7836H10.1031L10.3052 21.9395H11.6104L11.7223 21.4725H9.88068ZM11.5038 24.8581L12.3143 21.4725H12.8505L12.0402 24.8581H11.5038ZM13.6209 21.4725L12.8105 24.8581H14.6521L14.7699 24.3655H13.4647L13.7267 23.2717H15.0319L15.1474 22.7882H13.8422L14.0455 21.9395H15.3507L15.4625 21.4725H13.6209ZM15.9229 24.3627H16.3738C16.6216 24.3627 16.8117 24.3457 16.9439 24.3118C17.076 24.278 17.1973 24.2208 17.3084 24.1407C17.4592 24.0315 17.5853 23.8953 17.6866 23.7326C17.7878 23.57 17.8645 23.3805 17.9161 23.1646C17.9676 22.9487 17.9817 22.7598 17.9584 22.5974C17.9349 22.4345 17.874 22.2985 17.7756 22.1889C17.7015 22.109 17.6038 22.0516 17.4818 22.0176C17.3596 21.9839 17.1607 21.9669 16.8842 21.9669H16.6903H16.4964L15.9229 24.3627ZM15.2675 24.8601L16.0779 21.4743H16.8014C17.2718 21.4743 17.5969 21.4984 17.7771 21.5469C17.9568 21.5957 18.1054 21.6772 18.2223 21.7911C18.3774 21.9407 18.4761 22.1327 18.5185 22.3668C18.5608 22.6012 18.5459 22.8688 18.474 23.1694C18.402 23.47 18.289 23.7364 18.1349 23.9684C17.9811 24.2005 17.7905 24.392 17.5637 24.543C17.3921 24.6572 17.2082 24.7385 17.0127 24.7872C16.8167 24.8356 16.5245 24.8601 16.1351 24.8601H15.9907H15.2675ZM21.2237 22.8878H21.086L21.3121 21.9439H21.4498C21.7338 21.9439 21.9196 21.9812 22.008 22.0552C22.0963 22.129 22.1187 22.2564 22.0755 22.4367C22.0353 22.6048 21.9579 22.722 21.8426 22.7882C21.7274 22.8544 21.5211 22.8878 21.2237 22.8878ZM20.5806 24.8581L20.9443 23.3384H21.1476H21.2534C21.4938 23.3384 21.6737 23.3256 21.7936 23.2992C21.9133 23.2732 22.0225 23.2292 22.1216 23.1674C22.2436 23.0905 22.3503 22.984 22.4413 22.8484C22.5324 22.7127 22.597 22.5646 22.6356 22.4042C22.6739 22.2441 22.6796 22.0973 22.653 21.9638C22.6263 21.8305 22.5706 21.7245 22.4859 21.6459C22.4163 21.5842 22.3281 21.5396 22.2214 21.5128C22.1143 21.4859 21.9405 21.4725 21.7001 21.4725H20.8887L20.078 24.8581H20.5806ZM26.1676 23.3086L25.797 24.8581H26.3288L26.6996 23.3086L28.2754 21.4725H27.7388L26.7572 22.6079C26.7218 22.648 26.6868 22.6918 26.6522 22.7396C26.6176 22.7872 26.583 22.8385 26.5493 22.8924C26.5371 22.8368 26.5241 22.7853 26.5107 22.7375C26.4975 22.6897 26.486 22.6513 26.4765 22.6218L26.0596 21.4725H25.496L26.1676 23.3086ZM32.6172 21.4725L31.8065 24.8581H33.648L33.7662 24.3655H32.461L32.7228 23.2717H34.0281L34.1437 22.7882H32.8385L33.0416 21.9395H34.3469L34.4588 21.4725H32.6172ZM34.2636 24.8596L35.1062 21.3399L36.7072 23.4096C36.75 23.468 36.7933 23.5305 36.8359 23.5968C36.8786 23.6632 36.9222 23.7378 36.9669 23.8212L37.5289 21.4739H38.025L37.1828 24.991L35.5481 22.8843C35.5043 22.8275 35.4636 22.7675 35.4255 22.7042C35.3871 22.6409 35.3525 22.5745 35.3207 22.5053L34.7572 24.8596H34.2636ZM39.039 24.8581L39.7376 21.9395H40.61L40.7217 21.4725H38.436L38.3241 21.9395H39.2009L38.5026 24.8581H39.039ZM40.293 24.1802L40.7699 23.9769C40.7747 24.1278 40.8214 24.2431 40.9105 24.3225C40.9996 24.402 41.1283 24.4416 41.297 24.4416C41.4561 24.4416 41.5938 24.3961 41.7093 24.3051C41.825 24.2142 41.9013 24.0924 41.9378 23.9398C41.9854 23.7407 41.8667 23.5634 41.5827 23.408C41.5429 23.3848 41.5123 23.3678 41.4913 23.3569C41.171 23.175 40.9679 23.0104 40.8822 22.8631C40.7967 22.7159 40.7791 22.5359 40.83 22.3233C40.896 22.0473 41.0409 21.8238 41.2645 21.6526C41.488 21.4814 41.7477 21.3958 42.044 21.3958C42.2874 21.3958 42.4796 21.444 42.6202 21.5403C42.7609 21.6369 42.8412 21.7752 42.8611 21.9555L42.389 22.1775C42.348 22.0712 42.2941 21.9934 42.2272 21.9439C42.16 21.8945 42.0751 21.8699 41.9732 21.8699C41.829 21.8699 41.7051 21.9087 41.6016 21.9854C41.4987 22.0626 41.4312 22.1659 41.4001 22.2955C41.3515 22.499 41.4924 22.6885 41.8231 22.8643C41.8485 22.878 41.8684 22.8891 41.8827 22.8968C42.1721 23.0507 42.3603 23.2016 42.4465 23.3489C42.533 23.4963 42.55 23.6801 42.497 23.9004C42.4203 24.2213 42.261 24.476 42.0189 24.6648C41.7768 24.8535 41.488 24.948 41.1532 24.948C40.8719 24.948 40.6575 24.8818 40.5099 24.7491C40.3618 24.6166 40.2896 24.4271 40.293 24.1802ZM45.0682 21.4725L44.2577 24.8581H44.7941L45.6046 21.4725H45.0682ZM45.5644 24.8596L46.407 21.3399L48.008 23.4096C48.0508 23.468 48.094 23.5305 48.1367 23.5968C48.1793 23.6632 48.2229 23.7378 48.2677 23.8212L48.8297 21.4739H49.3256L48.4836 24.991L46.8489 22.8843C46.8051 22.8275 46.7642 22.7675 46.7261 22.7042C46.6879 22.6409 46.6531 22.5745 46.6213 22.5053L46.0579 24.8596H45.5644ZM50.3396 24.8581L51.0383 21.9395H51.9108L52.0224 21.4725H49.7368L49.6249 21.9395H50.5017L49.8033 24.8581H50.3396ZM51.621 24.8581L52.4315 21.4725H54.2731L54.1614 21.9395H52.8562L52.6529 22.7882H53.9581L53.8424 23.2717H52.5372L52.2754 24.3655H53.5806L53.4626 24.8581H51.621ZM55.1767 22.9154H55.0795L55.3121 21.9441H55.4092C55.6796 21.9441 55.8558 21.9821 55.937 22.0588C56.0191 22.1349 56.0374 22.2665 55.9927 22.453C55.9518 22.6258 55.876 22.7459 55.7667 22.8138C55.6573 22.8817 55.4605 22.9154 55.1767 22.9154ZM54.5806 24.8581L54.9434 23.3432H55.0042L55.7393 24.8581H56.3459L55.5783 23.3177C55.8351 23.2871 56.0459 23.1948 56.2103 23.0416C56.3748 22.888 56.4895 22.6756 56.5544 22.4042C56.5911 22.2503 56.5974 22.1084 56.5731 21.9791C56.5482 21.8496 56.4947 21.7437 56.4121 21.6622C56.3427 21.5941 56.2509 21.5457 56.1369 21.5165C56.0231 21.487 55.8563 21.4725 55.637 21.4725H54.8887L54.078 24.8581H54.5806ZM56.664 24.8581L57.4744 21.4725H59.316L59.2044 21.9395H57.899L57.6968 22.7836H59.0022L58.8865 23.2669H57.5813L57.2004 24.8581H56.664ZM60.8597 23.5285H59.9398L60.4627 22.7559C60.4967 22.702 60.5315 22.6431 60.5671 22.5792C60.6026 22.5151 60.6384 22.4461 60.6742 22.3721C60.6766 22.4507 60.6805 22.522 60.686 22.5861C60.6919 22.6501 60.6986 22.7067 60.7061 22.7559L60.8597 23.5285ZM60.9392 23.9863L61.105 24.8581H61.6707L60.9168 21.3384L58.4765 24.8581H59.0399L59.6317 23.9863H60.9392ZM65.1609 22.2955C65.041 22.163 64.9044 22.0636 64.7511 21.9972C64.5981 21.9312 64.4283 21.8978 64.2418 21.8978C63.8813 21.8978 63.5593 22.0165 63.2764 22.2539C62.9932 22.4914 62.8066 22.7989 62.7161 23.1768C62.6287 23.5422 62.6668 23.8434 62.8301 24.0807C62.9934 24.3183 63.2428 24.4372 63.5776 24.4372C63.7733 24.4372 63.9676 24.4016 64.1611 24.3307C64.3546 24.2597 64.5499 24.1526 64.7463 24.009L64.5973 24.6313C64.4277 24.7376 64.2516 24.8172 64.0693 24.8694C63.8869 24.9218 63.6966 24.948 63.4983 24.948C63.2458 24.948 63.0225 24.9057 62.8288 24.8208C62.6348 24.7361 62.4763 24.6114 62.3537 24.4462C62.2317 24.2844 62.1535 24.0937 62.12 23.8738C62.086 23.6543 62.0988 23.4202 62.1581 23.1718C62.2176 22.9238 62.3168 22.6906 62.4555 22.4724C62.5939 22.2542 62.7651 22.0626 62.9682 21.8978C63.172 21.7312 63.39 21.6054 63.6222 21.5195C63.8546 21.4342 64.0942 21.3912 64.3407 21.3912C64.5346 21.3912 64.7124 21.4203 64.8744 21.4782C65.0364 21.5358 65.1859 21.6232 65.3234 21.7408L65.1609 22.2955ZM66.0233 21.4725L65.2128 24.8581H67.0544L67.1724 24.3655H65.8672L66.129 23.2717H67.4342L67.5499 22.7882H66.2447L66.448 21.9395H67.753L67.8649 21.4725H66.0233ZM52.3286 0.0549846C52.8642 0.0549846 53.2585 0.232835 53.5142 0.585284C53.767 0.938115 53.8189 1.38484 53.6689 1.92317L51.6149 9.342C51.4705 9.86293 51.1693 10.2991 50.7117 10.6529C50.2531 11.0063 49.7654 11.183 49.2474 11.183H32.6583L30.6041 18.6003H26.914L29.9751 7.54935H33.6633L33.6619 7.55738H48.4199L49.4935 3.68064H34.7359V3.68274H31.0462L32.0506 0.0549846H52.3286ZM24.7649 17.3674C24.5613 18.1008 23.8935 18.6081 23.1321 18.6081H4.10582C3.58738 18.6081 3.20203 18.4314 2.94864 18.0784C2.69545 17.725 2.64114 17.2879 2.7859 16.7671L7.42836 0.0555326H11.1194L6.97284 14.9815H21.7375L25.884 0.0555326H29.5743L24.7649 17.3674ZM63.6532 0.034565L65.7632 4.2339L66.927 0.034565L71.5958 9.31967L61.7812 18.6023L62.9461 14.3988L58.4999 18.6023L63.6532 0.034565Z" fill="#819EB0" fill-opacity="0.8"/>
</svg>

<svg width="72" height="25" fill="none" xmlns="http://www.w3.org/2000/svg"><path fill-rule="evenodd" clip-rule="evenodd" d="M55.43 18.522h-3.688L56.871 0h3.688l-5.13 18.522zm-24.517 4.664c0-.026.008-.098.023-.217.012-.099.02-.18.027-.245-.032.077-.07.154-.113.23a2.717 2.717 0 0 1-.15.237l-1.295 1.804-.422-1.841a2.148 2.148 0 0 1-.06-.43 2.943 2.943 0 0 1-.173.467l-.753 1.667h-.493l1.624-3.529.463 2.137c.006.034.016.09.028.169l.042.291a4.86 4.86 0 0 1 .237-.37l.063-.092 1.462-2.135-.046 3.53h-.499l.035-1.673zm-7.616.343h.92l-.154-.773a3.311 3.311 0 0 1-.032-.384 3.833 3.833 0 0 1-.21.384l-.524.773zm1.165 1.33-.166-.873H22.99l-.592.872h-.563l2.44-3.52.754 3.52h-.566zm-19.575-3.52-.842 3.52h.493l.564-2.354a1.945 1.945 0 0 0 .227.38l1.635 2.106.842-3.517H7.31l-.562 2.347a3.33 3.33 0 0 0-.26-.411l-1.6-2.07zm-2.95.133h-.53L.903 23.58c-.11.46-.08.802.09 1.029.169.227.48.34.935.34.453 0 .82-.114 1.1-.341.28-.227.475-.57.584-1.028l.505-2.107H3.58l-.492 2.056c-.073.305-.197.535-.371.688-.174.153-.397.23-.67.23s-.46-.077-.56-.23c-.102-.153-.116-.383-.043-.688l.493-2.056zm5.825 3.386.81-3.386h.536l-.81 3.386h-.536zm2.119-3.386-.81 3.386h.536l.38-1.591h1.306l.115-.483h-1.305l.202-.845h1.305l.112-.466H9.881zm1.623 3.386.81-3.386h.537l-.81 3.386h-.537zm2.117-3.386-.81 3.386h1.841l.118-.492h-1.305l.262-1.094h1.305l.115-.484h-1.305l.204-.849h1.305l.111-.466h-1.841zm2.302 2.89h.45c.249 0 .439-.016.57-.05.133-.034.254-.091.365-.171.151-.11.277-.246.379-.408.1-.163.177-.352.23-.568.05-.216.065-.405.041-.568a.757.757 0 0 0-.182-.408.616.616 0 0 0-.294-.171c-.122-.034-.321-.051-.598-.051h-.388l-.573 2.396zm-.655.498.81-3.386h.723c.47 0 .796.024.976.073a1 1 0 0 1 .445.244c.155.15.254.342.296.576.043.234.028.502-.044.802a2.47 2.47 0 0 1-.34.8 2.029 2.029 0 0 1-.57.574 1.753 1.753 0 0 1-.551.244c-.196.049-.489.073-.878.073h-.867zm5.956-1.972h-.138l.226-.944h.138c.284 0 .47.037.558.111.088.074.11.201.068.382-.04.168-.118.285-.233.351-.116.066-.322.1-.62.1zm-.643 1.97.363-1.52h.309c.24 0 .42-.012.54-.039.12-.026.23-.07.329-.132.122-.077.228-.183.32-.319.09-.135.155-.283.194-.444.038-.16.044-.307.017-.44a.573.573 0 0 0-.167-.318.619.619 0 0 0-.265-.133 2.378 2.378 0 0 0-.52-.04h-.812l-.811 3.385h.503zm5.587-1.55-.371 1.55h.532l.37-1.55 1.576-1.835h-.536l-.982 1.135a2.652 2.652 0 0 0-.208.284 2.782 2.782 0 0 0-.072-.27l-.417-1.15h-.564l.672 1.837zm6.45-1.835-.812 3.385h1.842l.118-.492h-1.305l.262-1.094h1.305l.116-.484h-1.305l.203-.849h1.305l.112-.466h-1.842zm1.646 3.387.842-3.52 1.601 2.07a3.706 3.706 0 0 1 .26.411l.562-2.347h.496l-.842 3.517-1.635-2.107a1.892 1.892 0 0 1-.227-.379l-.564 2.355h-.493zm4.775-.002.699-2.919h.872l.112-.466h-2.286l-.112.466h.877l-.698 2.92h.536zm1.254-.678.477-.203c.005.15.051.266.14.346.09.079.218.119.387.119a.638.638 0 0 0 .64-.502c.048-.2-.07-.377-.354-.532a2.28 2.28 0 0 0-.092-.051c-.32-.182-.523-.347-.609-.494-.085-.147-.103-.327-.052-.54.066-.276.21-.5.434-.67.224-.172.484-.257.78-.257.243 0 .436.048.576.144.14.097.221.235.241.416l-.472.221a.508.508 0 0 0-.162-.233.418.418 0 0 0-.254-.074.607.607 0 0 0-.371.115.53.53 0 0 0-.202.31c-.048.204.092.393.423.57l.06.032c.29.154.477.305.563.452.087.147.104.331.051.551-.077.321-.236.576-.478.765-.242.189-.531.283-.866.283-.281 0-.495-.066-.643-.199-.148-.132-.22-.322-.217-.569zm4.775-2.707-.81 3.385h.536l.81-3.386h-.536zm.496 3.387.843-3.52 1.601 2.07a3.773 3.773 0 0 1 .26.411l.562-2.347h.496l-.842 3.517-1.635-2.107a1.893 1.893 0 0 1-.228-.379l-.563 2.355h-.494zm4.776-.002.698-2.919h.873l.111-.466h-2.285l-.112.466h.877l-.699 2.92h.537zm1.281 0 .81-3.386h1.842l-.112.467h-1.305l-.203.85h1.305l-.116.483h-1.305l-.262 1.094h1.306l-.118.492H51.62zm3.556-1.943h-.097l.232-.97h.097c.27 0 .447.037.528.114.082.076.1.207.056.394-.041.173-.117.293-.226.36-.11.069-.306.102-.59.102zm-.596 1.943.362-1.515h.061l.735 1.515h.607l-.768-1.54c.257-.03.468-.123.632-.276.165-.154.28-.366.344-.638.037-.154.043-.296.02-.425a.589.589 0 0 0-.162-.317.594.594 0 0 0-.275-.145 2.13 2.13 0 0 0-.5-.044h-.748l-.811 3.385h.503zm2.083 0 .81-3.386h1.842l-.112.467H57.9l-.202.845h1.305l-.116.483h-1.305l-.38 1.591h-.537zm4.196-1.33h-.92l.523-.772a3.782 3.782 0 0 0 .211-.384 3.923 3.923 0 0 0 .032.384l.154.773zm.08.458.165.872h.566l-.754-3.52-2.44 3.52h.563l.592-.872h1.307zm4.22-1.69a1.185 1.185 0 0 0-.918-.398c-.36 0-.683.119-.966.356a1.68 1.68 0 0 0-.56.923c-.087.365-.05.666.114.904.163.237.413.356.748.356.195 0 .39-.035.583-.106.194-.071.389-.178.585-.322l-.149.622a2.06 2.06 0 0 1-.528.238 2.058 2.058 0 0 1-.57.079c-.253 0-.477-.042-.67-.127a1.156 1.156 0 0 1-.475-.375 1.245 1.245 0 0 1-.234-.572 1.814 1.814 0 0 1 .038-.702c.06-.248.159-.481.297-.7.139-.218.31-.41.513-.574.204-.167.422-.293.654-.378a2.07 2.07 0 0 1 .719-.129c.194 0 .371.03.533.087.162.058.312.145.45.263l-.163.555zm.863-.823-.81 3.385h1.841l.118-.492h-1.305l.262-1.094h1.305l.116-.484h-1.305l.203-.849h1.305l.112-.466h-1.842zM52.33.055c.535 0 .93.178 1.185.53.253.353.305.8.155 1.338l-2.054 7.419c-.145.52-.446.957-.903 1.31-.459.354-.947.531-1.465.531H32.658L30.604 18.6h-3.69l3.061-11.05h3.688l-.001.007H48.42l1.073-3.876H34.736v.002h-3.69L32.051.055h20.278zM24.765 17.367a1.694 1.694 0 0 1-1.633 1.241H4.106c-.519 0-.904-.177-1.157-.53-.254-.353-.308-.79-.163-1.31L7.428.055h3.691L6.973 14.982h14.765L25.884.056h3.69l-4.81 17.311zM63.653.035l2.11 4.199 1.164-4.2 4.669 9.286-9.815 9.282 1.165-4.203-4.446 4.203L63.653.035z" fill="#819EB0" fill-opacity=".8"/></svg>
